FINK
CUT[GUTE NACHT]
REG[Europa, Mitteleuropa, Deutschland]
KEY[F0741  16  G 4/4]
MEL[-5__-5__  1___-7__-7__  -6___
    -5__1__  -6__-6__-5__-4__  -3___
    -2__-5__  -3_-4#_-5_-6_-7__-6_.-7  -6__-5__
    -5__-5__  1_-3_-6_-5_-7__1__  -7__-5__
    1__-7__  -6__-5__-4__-3__  -2___
    -2__-2__  -5___-5__-5__  -5___ //] >>
FCT[Geselligkeits -, Tageszeiten - Lied, Abend]
